src/assets/outline/Brush1.svg

<svg width="24" height="24" viewBox="0 0 24 24"  xmlns="http://www.w3.org/2000/svg">
<path d="M14.9702 22.75H8.97021C3.54022 22.75 1.22021 20.43 1.22021 15V9C1.22021 3.57 3.54022 1.25 8.97021 1.25H10.9702C11.3802 1.25 11.7202 1.59 11.7202 2C11.7202 2.41 11.3802 2.75 10.9702 2.75H8.97021C4.36021 2.75 2.72021 4.39 2.72021 9V15C2.72021 19.61 4.36021 21.25 8.97021 21.25H14.9702C19.5802 21.25 21.2202 19.61 21.2202 15V13C21.2202 12.59 21.5602 12.25 21.9702 12.25C22.3802 12.25 22.7202 12.59 22.7202 13V15C22.7202 20.43 20.4102 22.75 14.9702 22.75Z" />
<path d="M12.7801 15.2399C12.6301 15.2399 12.4901 15.1999 12.3601 15.1099C12.1501 14.9699 12.0301 14.7399 12.0301 14.4899C12.0301 14.3799 12.0201 14.2599 12.0001 14.1399C11.9301 13.6099 11.6901 13.1399 11.2901 12.7299C10.8801 12.3199 10.3801 12.0599 9.83009 11.9899C9.75009 11.9799 9.62009 11.9699 9.50009 11.9799C9.25009 11.9999 9.00009 11.8899 8.85009 11.6899C8.70009 11.4899 8.66009 11.2199 8.74009 10.9799C8.86009 10.6399 9.05009 10.3199 9.27009 10.0699L10.5001 8.52989C12.6401 5.85989 16.9501 2.65989 20.1301 1.38989C20.8601 1.10989 21.6301 1.26989 22.1601 1.79989C22.7101 2.34989 22.8701 3.12989 22.5801 3.83989C21.3101 7.00989 18.1101 11.3299 15.4501 13.4599L13.8801 14.7199C13.5701 14.9399 13.3201 15.0899 13.0601 15.1899C12.9701 15.2199 12.8701 15.2399 12.7801 15.2399ZM10.7201 10.6699C11.3301 10.8699 11.8801 11.2099 12.3501 11.6699C12.8101 12.1299 13.1401 12.6599 13.3301 13.2299L14.5101 12.2799C17.0001 10.2799 20.0001 6.23989 21.1901 3.26989C21.2701 3.07989 21.1801 2.93989 21.1001 2.84989C21.0501 2.79989 20.9101 2.68989 20.6801 2.77989C17.7201 3.96989 13.6801 6.96989 11.6801 9.45989L10.7201 10.6699Z" />
<path d="M7.69999 18.7502C7.05999 18.7502 6.44999 18.5002 5.98999 18.0402C5.45999 17.5102 5.19999 16.7802 5.28999 16.0302L5.49999 14.0702C5.71999 12.0402 7.36999 10.5402 9.43999 10.5002C9.59999 10.4902 9.79999 10.5002 9.98999 10.5102C10.9 10.6302 11.71 11.0302 12.35 11.6802C12.99 12.3202 13.38 13.0802 13.49 13.9402C13.52 14.1302 13.53 14.3202 13.53 14.5002C13.53 15.5902 13.11 16.6202 12.34 17.3902C11.71 18.0202 10.89 18.4102 9.95999 18.5302L7.97999 18.7402C7.87999 18.7502 7.78999 18.7502 7.69999 18.7502ZM9.59999 11.9902C9.56999 11.9902 9.52999 11.9902 9.49999 11.9902C8.34999 12.0202 7.13999 12.7902 6.98999 14.2302L6.77999 16.2002C6.74999 16.4902 6.84999 16.7802 7.04999 16.9802C7.24999 17.1802 7.52999 17.2802 7.80999 17.2502L9.77999 17.0402C10.36 16.9702 10.88 16.7202 11.27 16.3302C11.75 15.8402 12.02 15.2002 12.02 14.5002C12.02 14.3902 12.01 14.2702 11.99 14.1502C11.92 13.6202 11.68 13.1502 11.28 12.7402C10.87 12.3302 10.37 12.0702 9.81999 12.0002C9.76999 11.9902 9.68999 11.9902 9.59999 11.9902Z" />
<path d="M15.8198 12.7299C15.4098 12.7299 15.0698 12.3899 15.0698 11.9799C15.0698 10.3099 13.7098 8.93994 12.0298 8.93994C11.6198 8.93994 11.2798 8.59994 11.2798 8.18994C11.2798 7.77994 11.6198 7.43994 12.0298 7.43994C14.5298 7.43994 16.5698 9.46994 16.5698 11.9799C16.5698 12.3899 16.2398 12.7299 15.8198 12.7299Z" />
</svg>

<?xml version="1.0" encoding="UTF-8"?>
<svg width="24" height="24" viewBox="0 0 24 24" xmlns="http://www.w3.org/2000/svg">
 <path d="m14.97 22.75h-6c-5.43 0-7.75-2.32-7.75-7.75v-6c0-5.43 2.32-7.75 7.75-7.75h2c0.41 0 0.75 0.34 0.75 0.75s-0.34 0.75-0.75 0.75h-2c-4.61 0-6.25 1.64-6.25 6.25v6c0 4.61 1.64 6.25 6.25 6.25h6c4.61 0 6.25-1.64 6.25-6.25v-2c0-0.41 0.34-0.75 0.75-0.75s0.75 0.34 0.75 0.75v2c0 5.43-2.31 7.75-7.75 7.75z"/>
 <path d="m12.78 15.24c-0.15 0-0.29-0.04-0.42-0.13-0.21-0.14-0.33-0.37-0.33-0.62 0-0.11-0.01-0.23-0.03-0.35-0.07-0.53-0.31-1-0.71-1.41-0.41-0.41-0.91-0.67-1.46-0.74-0.08-0.01-0.21-0.02-0.33-0.01-0.25 0.02-0.5-0.09-0.65-0.29s-0.19-0.47-0.11-0.71c0.12-0.34 0.31-0.66 0.53-0.91l1.23-1.54c2.14-2.67 6.45-5.87 9.63-7.14 0.73-0.28 1.5-0.12 2.03 0.41 0.55 0.55 0.71 1.33 0.42 2.04-1.27 3.17-4.47 7.49-7.13 9.62l-1.57 1.26c-0.31 0.22-0.56 0.37-0.82 0.47-0.09 0.03-0.19 0.05-0.28 0.05zm-2.06-4.57c0.61 0.2 1.16 0.54 1.63 1 0.46 0.46 0.79 0.99 0.98 1.56l1.18-0.95c2.49-2 5.49-6.04 6.68-9.01 0.08-0.19-0.01-0.33-0.09-0.42-0.05-0.05-0.19-0.16-0.42-0.07-2.96 1.19-7 4.19-9 6.68l-0.96 1.21z"/>
 <path d="m7.7 18.75c-0.64 0-1.25-0.25-1.71-0.71-0.53-0.53-0.79-1.26-0.7-2.01l0.21-1.96c0.22-2.03 1.87-3.53 3.94-3.57 0.16-0.01 0.36 0 0.55 0.01 0.91001 0.12 1.72 0.52 2.36 1.17 0.64 0.64 1.03 1.4 1.14 2.26 0.03 0.19 0.04 0.38 0.04 0.56 0 1.09-0.42 2.12-1.19 2.89-0.63 0.63-1.45 1.02-2.38 1.14l-1.98 0.21c-0.1 0.01-0.19 0.01-0.28 0.01zm1.9-6.76h-0.1c-1.15 0.03-2.36 0.8-2.51 2.24l-0.21 1.97c-0.03 0.29 0.07 0.58 0.27 0.78s0.48 0.3 0.76 0.27l1.97-0.21c0.58001-0.07 1.1-0.32 1.49-0.71 0.48-0.49 0.75-1.13 0.75-1.83 0-0.11-0.01-0.23-0.03-0.35-0.07-0.53-0.31-1-0.71-1.41-0.41-0.41-0.91-0.67-1.46-0.74-0.05-0.01-0.13-0.01-0.22-0.01z"/>
 <path d="m15.82 12.73c-0.41 0-0.75-0.34-0.75-0.75 0-1.67-1.36-3.04-3.04-3.04-0.41 0-0.75-0.34-0.75-0.75s0.34-0.75 0.75-0.75c2.5 0 4.54 2.03 4.54 4.54 0 0.41-0.33 0.75-0.75 0.75z"/>
</svg>
